X:1
T:Title
%%score { ( 1 4 ) | ( 2 3 ) }
L:1/8
Q:1/4=100
M:4/4
K:Eb
V:1 treble nm="Grand Piano"
V:4 treble 
V:2 bass 
V:3 bass 
V:1
 G3 G _G=G [_Gc]>[=GB] | [GB]4 [EG]4 | [FA]3 [=EG] [FA][Ac][GB][FA] | G6 z2 | %4
w: J.~H.~Ruebush * * * * *||||
 G3 G _G=G [_Gc]>[=GB] | [EB]4 [Ge]4 | [Ad]3 d ec[B,FB][CE=A] | [DB]6 z2 | [FA]3 [=EG] [FA]cBA | %9
w: |||||
 [EG]4 [GB]2 z2 | [FA]3 G [FA]cBA | [EG]6[K:bass] z2 | [Ge]3 [Ge] [GB]GBe | [Ed]4 z4 | %14
w: |||||
 [EB]3 [EB] [E=A]B c>B | E6 z2 |] %16
w: ||
V:2
 [E,B,E]3 [E,B,E] [E,=A,E][E,B,E] [E,A,]>[E,B,] | [E,E]4 [E,B,]4 | %2
 [B,,B,]3 [B,,B,] [B,,B,][B,,B,][C,B,][D,B,] | [E,B,E]6 z2 | %4
 [E,B,E]3 [E,B,E] [E,=A,E][E,B,E] [E,A,]>[E,B,] | [E,G,]4 [C,C]4 | %6
 [F,B,]3 [F,B,F] [F,=A,F][F,A,F]F,,F,, | [B,,B,]6 z2 | [B,,B,]4 z[K:treble] AGF | %9
 E,E,E,E, E,E, z2 | z2 z =E z[K:treble] AGF | E,E,E,E, E,2 z2 | [E,B,]4 z[K:treble] EGG | %13
 [A,,A,]A,,A,,A,, [A,,A,][A,,A,] z2 | [B,,G,]4 z E E>D | [E,G,]E,E,E, E,2 z2 |] %16
V:3
 x8 | x8 | x8 | x8 | x8 | x8 | x8 | x8 | z4 [B,,B,]4[K:treble] | x8 | B,4 [B,,B,]4[K:treble] | x8 | %12
 z4 [E,B,]4[K:treble] | x8 | z4 [B,,G,]4 | x8 |] %16
V:4
 x8 | x8 | x8 | x8 | x8 | x8 | x8 | x8 | x8 | B,B,B,B, EE z2 | x8 | B,[K:bass]B,B,B, B,2 z2 | x8 | %13
 z A,A,A, [Ec]4 | x8 | z G,A,A, G,2 z2 |] %16

